X: 50
T:For the Sakes of Old Decency
M:2/2
S: Michael Tubridy, "The Chieftains Live", also "The Eagle's Whistle"
R:Reel
Z:Robert Greenway, 12/11/1998
K:G
d2BG AGEG|DGBG ~A3B|~d2BG AGEG|DGBG EGG2:||
~G3B d2Bd|eaag e~g3|~G3B d~B3|dega bgg2|
~G3B d2Bd|eaag e~g3|~G3B d~B3|dega bage||

